!!!!SEGMENT: pl-wtm--a-43-196-99--001-003_kazuro-stanislaw--25-piesni-dzieciecych-z-fortepianem-op-49-pierwszy-kwiat.krn
!!!cenid: 19xx:199
!!!COM: Kazuro, Stanisław
!!!COM-rismID: pe50047136
!!!CDT: 1881/08/02-1961/11/30
!!!CNT: Polish
!!!GTL: 25 Pieśni dziecięcych z fortepianem, op. 49
!!!OTL: Pierwszy kwiat
!!!OMV: 003
!!!PDT: 1950
!!!AGN:
!!!YEC: Copyright 2022 Narodowy Instytut Fryderyka Chopina (https://polishscores.org)
!!!YEM: License CC-BY-4.0 (https://creativecommons.org/licenses/by/4.0)
!!!SMS-siglum: PL-Wtm
!!!SMS-shelfmark: A-43.196/99
!!!SMS-variant:
!!!SMS-altvar:
!!!SMS-shelfwork: 001-003 G
!!!NIFC-rismSourceID: 1001164821
!!!NIFC-rismChildID: 1001164821
!!!NIFC-islandoraID: pl-wtm:43198
!!!URL-pdf-islandora: https://repozytorium.nifc.pl/islandora/object/pl-wtm:43198/datastream/PDF/view
!!!URL-scan: https://polish.musicsources.pl/pl/lokalizacje/galeria/druki-muzyczne/22428/5 @EN{Scan on Polish Music Sources Website} @PL{Skany w portalu Dziedzictwo Muzyki Polskiej w otwartym dostępie}
!!!IIIF:
!!!ONB-nifc:
!!!AIN: 1 piano 1 vox
!!!key: C
!!!OMD: Moderato.
**kern	**kern	**dynam	**kern	**text	**text	**dynam
*part2	*part2	*part2	*part1	*part1	*part1	*part1
*staff3	*staff2	*staff2/3	*staff1	*staff1	*staff1	*staff1
*I"[Piano]	*I"[Piano]	*	*I"[Voice]	*	*	*
*I'pf	*I'pf	*	*I'V	*	*	*
*Ipiano	*Ipiano	*	*Ivox	*	*	*
*ICklav	*ICklav	*	*ICvox	*	*	*
*IGacmp	*IGacmp	*	*IGsolo	*	*	*
*>[A,A]	*>[A,A]	*>[A,A]	*>[A,A]	*>[A,A]	*>[A,A]	*
*>A	*>A	*>A	*>A	*>A	*>A	*>A
*clefG2	*clefG2	*	*clefG2	*	*	*
*k[]	*k[]	*	*k[]	*	*	*
*C:	*C:	*	*C:	*	*	*
*M2/4	*M2/4	*	*M2/4	*	*	*
=1	=1	=1	=1	=1	=1	=1
*	*^	*	*	*	*	*
!	!	!	!LO:DY:rj	!LO:TX:a:t=Słowa E. Kłonieckiego.	!	!	!
8.g#X/L	4dd~/	4cc\	mf	2r	.	.	.
16a/Jk	.	.	.	.	.	.	.
8.f#X/L	4cc~/	4b-X\	.	.	.	.	.
16g#/Jk	.	.	.	.	.	.	.
=2	=2	=2	=2	=2	=2	=2	=2
8.c#X/L	4g~/	4fn\	.	2r	.	.	.
16d/Jk	.	.	.	.	.	.	.
*clefF4	*	*	*	*	*	*	*
8.G#X\L	4d~/	4cn\	.	.	.	.	.
16A\Jk	.	.	.	.	.	.	.
.	.	.	p	.	.	.	.
=3	=3	=3	=3	=3	=3	=3	=3
*^	*	*	*	*	*	*	*
(2F#X/	[2GG\	[2d/	[2B\	.	2r	.	.	.
=4	=4	=4	=4	=4	=4	=4	=4	=4
2Fn/)	2GG\]	2d/]	2B\]	.	2r	.	.	.
!!LO:LB:g=original
=5	=5	=5	=5	=5	=5	=5	=5	=5
*	*	*	*	*	*	*v:1	*v:2	*
4E/	4C\	8.c/L	4G\	mp <	8.c/	Ni-	I	mp <
.	.	16d/K	.	.	16d/	-by	śle	.
4A/	4D\	8e/	4c\	.	8e/	je-	szept	.
.	.	8f/J	.	.	8f/	-szcze	ra-	[[
=6	=6	=6	=6	=6	=6	=6	=6	=6
8G/L	4GG\	2g 2B/	8d#X\L	[	4g/	zi-	-do-	.
8F/J	.	.	8dn\J	.	.	.	.	.
4E/	4AA\	.	4c\	.	4g/	-ma,	-sny,	.
*v	*v	*	*	*	*	*	*	*
=7	=7	=7	=7	=7	=7	=7	=7
4D 4DD/	8.a/L	4f 4c\	mf <	8a/	i	z głę-	mf
.	.	.	.	8b\	ten	-bi	.
.	16b/Jk	.	.	.	.	.	.
8A\L	8ccL 8g/	8fL 8c\	.	8cc\	stra-	le-	.
8B\J	8ddJ 8a,/	8gJ 8d\	[[	8dd,\	-szny	-śnych	.
=8	=8	=8	=8	=8	=8	=8	=8
*^	*	*	*	*	*	*	*
2c#X/	2A\	2ee 2b/	2a 2e\	f	2ee\	chłód	kniej,	f
*v	*v	*	*	*	*	*	*	*
!!LO:LB:g=original
=9	=9	=9	=9	=9	=9	=9	=9
*	*	*	*	*	*v:1	*v:2	*
8.e\L	4dd/	4cc\	mf	8.dd\	świat	ja-	mf
16f\Jk	.	.	.	16cc\	w o-	-ko	.
8.c#X\L	4b/	4a 4f\	.	8b\	-ko-	zwia-	.
.	.	.	.	8a/	-wach	-stun	.
16d\Jk	.	.	.	.	.	.	.
=10	=10	=10	=10	=10	=10	=10	=10
8.A#X\L	4g/	4f 4d\	.	4g/	trzy-	wio-	.
16B\Jk	.	.	.	.	.	.	.
8.G\L	4e/	4d 4B\	.	4e/	-ma,	-sny,	.
16G#X\Jk	.	.	.	.	.	.	.
*	*v	*v	*	*	*	*	*
=11	=11	=11	=11	=11	=11	=11
2A 2C 2FF/	(>16f/LL	>	8f/	i	ja-	mp >
.	16g/	.	.	.	.	.
.	16f/	.	8e/	te	-ko	.
.	16e/JJ	.	.	.	.	.
.	8d/L	.	8d/	fa-	sy-	.
.	8c/J)	]]	8c/	-le	-mbol	]]
=12	=12	=12	=12	=12	=12	=12
*^	*^	*	*	*	*	*
2F#X 2D/	2DD\	2d~/	2A#X\	.	2d/	wód.	jej.	.
!!LO:PB:g=original
=13	=13	=13	=13	=13	=13	=13	=13	=13
*	*	*	*	*	*	*v:1	*v:2	*
4G#X 4E/	4EE\	8.c/L	4ryy	.	8.c/	Za-	I	<
!	!	!LO:N:vis=8	!	!	!	!	!	!
.	.	16d/Jk	.	.	16d/	-mro-	śle	.
4A/	4F\	(8e/L	4c\	.	8e/	-żo-	szept	.
.	.	8f/J)	.	.	8f/	-ne	ra-	[
=14	=14	=14	=14	=14	=14	=14	=14	=14
8B/L	8G\L	2g,/	(>8d#X\L	.	4g/	w bie-	-do-	.
8c/J	8c\J	.	8e\J	.	.	.	.	.
4c#X,/	4c#\	.	4f\)	.	4g,/	-gu,	-sny	.
*v	*v	*	*	*	*	*	*	*
=15	=15	=15	=15	=15	=15	=15	=15
!	!LO:TX:b:t=m.s.	!	!	!	!	!	!
2r	8.aL 8.f/	8.d\L	mf	8a/	śnią	z głę-	mf <
.	.	.	.	8b\	pod	-bi	.
.	16bJk 16g/	16d#X\Jk	.	.	.	.	.
.	(8ccL 8g#X/	8d#\L	.	8cc\	bie-	le-	.
.	8ddnJ 8a#X/)	8f#X\J	.	8dd\	-lą	-śnych	[[
!!LO:LB:g=original
=16	=16	=16	=16	=16	=16	=16	=16
*	*	*	*	*	*v:1	*v:2	*
2r	2ee/	2cc 2g#X 2e\	f	2ee^,\	szat,	kniej.	.
=17	=17	=17	=17	=17	=17	=17	=17
2r	8.dd/L	8.ccL 8.a 8.f\	.	8.dd\	a	ja-	.
.	16ee/Jk	16ccJk 16a#X 16f#X\	.	16cc\	już	-ko	.
.	8gg/L	8dd#XL 8b 8g\	.	8b\	z po-	zwia-	.
.	8aa/J	8eeJ 8cc 8an\	.	8a/	-pod	-stun	.
=18	=18	=18	=18	=18	=18	=18	=18
4r	8ee/L	4e\	>	4g/	śnie-	wio-	.
.	8aJ 8f/	.	.	.	.	.	.
8c/L	[4f/	4e\	]	4e/	-gu	-sny,	.
8G#X/J	.	.	.	.	.	.	.
!!LO:LB:g=original
=19	=19	=19	=19	=19	=19	=19	=19
*^	*	*	*	*	*	*	*
*	*	*	*	*	*	*v:1	*v:2	*
!	!	!LO:TX:t=P:problem=brak zakończenia ligatury	!	!	!	!	!	!
8.A/L	4.D\	8.f/L]	4B\	p	8f/	wyj-	ja-	p
.	.	.	.	.	8e/	-rzał	-ko	.
16Gn/K	.	16e/Jk	.	.	.	.	.	.
8G-X/	.	8d/L	8B-X\L	.	8d/	dro-	sy-	.
8F/J	8GG\	8e/J	8A-X\J	.	8e/	-bny	-mbol	.
=20	=20	=20	=20	=20	=20	=20	=20	=20
[2E/	2C\	[2c/	[2G\	.	2c/	kwiat.	jej.	.
=21	=21	=21	=21	=21	=21	=21	=21	=21
2E/]	2C 2CC\	2c/]	2G\]	.	2r	.	.	.
*v	*v	*	*	*	*	*	*	*
*	*v	*v	*	*	*	*	*
==:|!	==:|!	==:|!	==:|!	==	==	==
*-	*-	*-	*-	*-	*-	*-
!!!system-decoration: s1{(s2,s3)}
!!!RDF**kern: > = above
!!!ENC: Andrzej Gręziak
!!!END: 2025-03-27
!!!EED: Marta Lawrence
!!!EEV: 2025-03-31
